assets/img/dinner-svg.svg

<?xml version="1.0"?>
                          <svg
                            viewBox="0 0 42 38"
                            fill="none"
                            xmlns="http://www.w3.org/2000/svg"
                          >
                            <g clip-path="url(#clip0)">
                              <path
                                d="M40.6539 21.3946L41.969 14.8504C42.1596 13.903 41.4626 12.9919 40.4151 12.8194C39.9066 12.7359 39.3932 12.8361 38.9695 13.1019C38.5464 13.3673 38.2626 13.7663 38.1706 14.2253L37.5301 17.4129C37.4693 17.7154 37.691 18.0051 38.0254 18.0601C38.3598 18.115 38.6799 17.9145 38.7407 17.612L39.3812 14.4242C39.4147 14.2575 39.5175 14.1128 39.6706 14.0167C39.8239 13.9205 40.0102 13.8843 40.195 13.9147C40.5748 13.9773 40.8275 14.3075 40.7584 14.6511L39.4433 21.1955C39.3828 21.4967 39.0932 21.7153 38.7546 21.7153H34.84L34.7 20.4488H37.6572C37.997 20.4488 38.2725 20.1996 38.2725 19.8922C38.2725 19.5848 37.997 19.3355 37.6572 19.3355H34.577L34.1063 15.0773C34.0748 14.7928 33.8101 14.5761 33.4941 14.5761H31.6518L32.1182 12.8879C32.1643 12.7216 32.1229 12.5454 32.0063 12.4103C31.8898 12.2751 31.7109 12.1962 31.5214 12.1962H26.9184C26.7289 12.1962 26.5501 12.2752 26.4335 12.4103C26.3168 12.5454 26.2756 12.7215 26.3216 12.8879L26.788 14.5761H23.2242L24.2018 12.3647C24.2776 12.1932 24.2546 11.9989 24.14 11.8459C24.0256 11.6929 23.8347 11.6014 23.6306 11.6014H23.2025C23.4469 11.2441 23.5883 10.8233 23.5883 10.3732C23.5883 9.08208 22.4274 8.03174 21.0004 8.03174C19.5734 8.03174 18.4125 9.08208 18.4125 10.3732C18.4125 10.8233 18.554 11.2441 18.7982 11.6014H18.3701C18.166 11.6014 17.9751 11.6929 17.8607 11.8459C17.7462 11.9989 17.7231 12.1932 17.7989 12.3647L18.7766 14.5761H15.2127L15.6793 12.8879C15.7253 12.7216 15.6839 12.5454 15.5674 12.4103C15.4508 12.2751 15.2719 12.1962 15.0824 12.1962H10.4795C10.29 12.1962 10.1111 12.2752 9.99449 12.4103C9.87784 12.5454 9.83658 12.7215 9.8826 12.8879L10.3491 14.5761H8.50685C8.19079 14.5761 7.92607 14.7928 7.89465 15.0773L7.42396 19.3355H4.34368C4.00391 19.3355 3.72845 19.5848 3.72845 19.8922C3.72845 20.1996 4.00391 20.4488 4.34368 20.4488H7.30091L7.16096 21.7153H3.24619C2.90773 21.7153 2.61807 21.4967 2.55753 21.1955L1.24241 14.651C1.17334 14.3075 1.42608 13.9772 1.80564 13.9147C1.99037 13.8842 2.17683 13.9206 2.33023 14.0167C2.48338 14.1128 2.58616 14.2575 2.61963 14.4243L3.26013 17.612C3.32092 17.9145 3.64158 18.1151 3.97545 18.0601C4.3098 18.0051 4.53153 17.7154 4.47075 17.4129L3.83033 14.2254C3.73821 13.7663 3.45446 13.3673 3.03135 13.1018C2.60774 12.8361 2.09439 12.7359 1.58555 12.8194C0.538253 12.9919 -0.158684 13.903 0.0318744 14.8503L1.347 21.3946C1.42632 21.7895 1.64953 22.1319 1.961 22.3836L1.31796 29.365C1.28974 29.6713 1.54141 29.9404 1.87996 29.9659C1.89735 29.9672 1.91457 29.9678 1.93172 29.9678C2.24836 29.9678 2.51742 29.748 2.54416 29.4574L3.15505 22.8249C3.1854 22.8261 3.21551 22.8285 3.24619 22.8285H7.03784L6.57936 26.9761C6.56205 27.1325 6.61874 27.2884 6.73539 27.405C6.85203 27.5216 7.01774 27.5881 7.19156 27.5881C8.26199 27.5881 8.83194 27.195 9.28992 26.8792C9.40165 26.8022 9.50484 26.7314 9.60943 26.6687L9.86627 29.4574C9.89302 29.7481 10.162 29.9678 10.4787 29.9678C10.4958 29.9678 10.5131 29.9672 10.5305 29.9659C10.869 29.9404 11.1207 29.6713 11.0925 29.365L10.8198 26.4041C11.3534 26.438 11.6286 26.6266 11.9949 26.8791C12.4529 27.1949 13.0228 27.588 14.0933 27.588C15.1637 27.588 15.7337 27.1949 16.1917 26.8791C16.5967 26.5999 16.8892 26.3981 17.5442 26.3981C18.1995 26.3981 18.4921 26.5999 18.8972 26.8791C19.259 27.1287 19.692 27.4255 20.3853 27.5395V28.8544H17.0552C16.7154 28.8544 16.4399 29.1036 16.4399 29.411C16.4399 29.7185 16.7154 29.9677 17.0552 29.9677H24.9459C25.2857 29.9677 25.5611 29.7185 25.5611 29.411C25.5611 29.1036 25.2857 28.8544 24.9459 28.8544H21.6157V27.5379C22.3033 27.4227 22.7338 27.1274 23.0939 26.879C23.4987 26.5998 23.7912 26.3981 24.4459 26.3981C25.1014 26.3981 25.3943 26.5999 25.7995 26.8791C26.2576 27.1949 26.8279 27.5879 27.8987 27.5879C28.9701 27.5879 29.5406 27.195 29.999 26.8793C30.3669 26.6258 30.6432 26.4368 31.1811 26.4038L30.9084 29.3648C30.8801 29.6712 31.1318 29.9402 31.4704 29.9658C31.4877 29.9671 31.505 29.9677 31.5221 29.9677C31.8388 29.9677 32.1078 29.7478 32.1346 29.4573L32.3913 26.6701C32.4953 26.7324 32.598 26.8028 32.709 26.8792C33.1674 27.1949 33.7379 27.5879 34.8094 27.5879C34.9832 27.5879 35.1489 27.5214 35.2655 27.4048C35.3822 27.2882 35.4389 27.1324 35.4216 26.9759L34.9632 22.8284H38.7548C38.7855 22.8284 38.8156 22.826 38.8459 22.8247L39.4568 29.4573C39.4836 29.7479 39.7526 29.9677 40.0693 29.9677C40.0863 29.9677 40.1036 29.967 40.121 29.9658C40.4596 29.9402 40.7113 29.6712 40.683 29.3648L40.04 22.3834C40.3513 22.1318 40.5745 21.7895 40.6539 21.3946V21.3946ZM27.7065 13.3095H30.7335L30.3835 14.576H28.0565L27.7065 13.3095ZM19.643 10.3731C19.643 9.69587 20.2519 9.14495 21.0005 9.14495C21.7489 9.14495 22.3579 9.69587 22.3579 10.3731C22.3579 11.0504 21.749 11.6013 21.0005 11.6013C20.2519 11.6013 19.643 11.0504 19.643 10.3731ZM19.2789 12.7146H22.722L21.899 14.576H20.1018L19.2789 12.7146ZM11.2674 13.3095H14.2943L13.9444 14.576H11.6173L11.2674 13.3095ZM33.4544 25.9936C32.996 25.6778 32.4254 25.2849 31.354 25.2849C30.2827 25.2849 29.7122 25.6778 29.2537 25.9936C28.8481 26.2729 28.555 26.4748 27.8987 26.4748C27.2431 26.4748 26.9503 26.273 26.5451 25.9937C26.087 25.6779 25.5167 25.2849 24.4459 25.2849C23.3756 25.2849 22.8057 25.678 22.3478 25.9939C21.943 26.2731 21.6506 26.4748 20.9959 26.4748C20.3407 26.4748 20.048 26.273 19.6429 25.9938C19.1849 25.678 18.6147 25.2849 17.5442 25.2849C16.4737 25.2849 15.9037 25.678 15.4457 25.9938C15.0407 26.273 14.7482 26.4748 14.0932 26.4748C13.4382 26.4748 13.1457 26.2731 12.7407 25.9938C12.2828 25.678 11.7128 25.2849 10.6424 25.2849C9.57195 25.2849 9.00199 25.678 8.54401 25.9938C8.31629 26.1508 8.12409 26.2833 7.883 26.3693L9.06343 15.6893H32.9372L34.1178 26.3697C33.8757 26.2838 33.6828 26.151 33.4544 25.9936V25.9936Z"
                                fill="#59882B"
                              />
                            </g>
                            <defs>
                              <clipPath id="clip0">
                                <rect width="42" height="38" fill="white" />
                              </clipPath>
                            </defs>
                          </svg>

<svg xmlns="http://www.w3.org/2000/svg" viewBox="0 0 42 38" fill="none" xmlns:v="https://vecta.io/nano"><g clip-path="url(#A)"><path d="M40.654 21.395l1.315-6.544c.19-.947-.506-1.86-1.554-2.03a2.08 2.08 0 0 0-1.446.283c-.423.265-.707.664-.8 1.123l-.64 3.188c-.06.302.16.592.495.647s.655-.146.715-.448l.64-3.188c.034-.167.136-.31.29-.408s.34-.132.524-.102c.38.063.633.393.563.736l-1.315 6.544c-.06.3-.35.52-.69.52H34.84l-.14-1.267h2.957c.34 0 .615-.25.615-.557s-.276-.557-.615-.557h-3.08l-.47-4.258c-.03-.284-.296-.5-.612-.5h-1.842l.466-1.688c.046-.166.005-.342-.112-.478a.64.64 0 0 0-.485-.214h-4.603a.64.64 0 0 0-.485.214c-.117.135-.158.31-.112.478l.466 1.688h-3.564l.978-2.21a.51.51 0 0 0-.062-.519c-.114-.153-.305-.245-.51-.245h-.428c.244-.357.386-.778.386-1.228 0-1.29-1.16-2.34-2.588-2.34s-2.588 1.05-2.588 2.34c0 .45.14.87.386 1.228h-.428c-.204 0-.395.09-.51.245a.51.51 0 0 0-.062.519l.978 2.21h-3.564l.467-1.688c.046-.166.005-.342-.112-.478a.64.64 0 0 0-.485-.214H10.48a.64.64 0 0 0-.485.214c-.117.135-.158.31-.112.478l.466 1.688H8.507c-.316 0-.58.217-.612.5l-.47 4.258h-3.08c-.34 0-.615.25-.615.557s.275.557.615.557H7.3l-.14 1.267H3.246c-.338 0-.628-.22-.69-.52L1.242 14.65c-.07-.344.184-.674.563-.736.185-.03.37.006.525.102s.256.24.29.408l.64 3.188c.06.303.38.503.715.448s.556-.345.495-.647l-.64-3.187a1.73 1.73 0 0 0-.799-1.124c-.424-.266-.937-.366-1.446-.282-1.047.172-1.744 1.084-1.554 2.03l1.315 6.544c.08.395.303.737.614.99l-.643 6.98c-.028.306.223.575.562.6l.052.002c.317 0 .586-.22.612-.5l.61-6.632.09.004h3.792l-.458 4.148c-.017.156.04.312.156.43s.282.183.456.183c1.07 0 1.64-.393 2.098-.71l.32-.2.257 2.79c.027.29.296.5.612.5l.052-.002c.338-.026.6-.295.562-.6l-.273-2.96c.534.034.81.223 1.175.475.458.316 1.028.71 2.098.71s1.64-.393 2.098-.71c.405-.28.697-.48 1.352-.48s.948.202 1.353.48c.362.25.795.546 1.488.66v1.315h-3.33c-.34 0-.615.25-.615.557s.275.557.615.557h7.89c.34 0 .615-.25.615-.557s-.275-.557-.615-.557h-3.33v-1.316c.688-.115 1.118-.4 1.478-.66.405-.28.697-.48 1.352-.48s.948.202 1.354.48c.458.316 1.028.71 2.1.71s1.642-.393 2.1-.71c.368-.253.644-.442 1.182-.476l-.273 2.96c-.028.306.223.575.562.6l.052.002c.317 0 .586-.22.613-.5l.257-2.787.318.21c.458.316 1.03.71 2.1.71.174 0 .34-.067.456-.183s.173-.272.156-.43l-.458-4.148h3.792l.09-.004.61 6.633c.027.29.296.5.612.5l.052-.002c.34-.026.6-.295.562-.6l-.643-6.98c.31-.252.535-.594.614-.99h0zM27.707 13.3h3.027l-.35 1.267h-2.327l-.35-1.267zm-8.063-2.936c0-.677.61-1.228 1.357-1.228s1.357.55 1.357 1.228S21.75 11.6 21 11.6s-1.357-.55-1.357-1.228zm-.364 2.342h3.443l-.823 1.86h-1.797l-.823-1.86zm-8.01.595h3.027l-.35 1.267h-2.327l-.35-1.267zm22.187 12.684c-.458-.316-1.03-.71-2.1-.71s-1.642.393-2.1.71c-.406.28-.7.48-1.355.48s-.948-.202-1.354-.48c-.458-.316-1.028-.71-2.1-.71s-1.64.393-2.098.71c-.405.28-.697.48-1.352.48s-.948-.202-1.353-.48c-.458-.316-1.028-.71-2.1-.71s-1.64.393-2.098.71c-.405.28-.697.48-1.353.48s-.947-.202-1.352-.48c-.458-.316-1.028-.71-2.098-.71s-1.64.393-2.098.71c-.228.157-.42.3-.66.375l1.18-10.68h23.874l1.18 10.68c-.242-.086-.435-.22-.663-.376h0z" fill="#59882b"/></g><defs><clipPath id="A"><path fill="#fff" d="M0 0h42v38H0z"/></clipPath></defs></svg>
